extensions/MultimediaViewer/resources/mmv/ui/img/prev-ltr.svg

<?xml version="1.0" encoding="UTF-8" standalone="no"?>
<!-- Created with Inkscape (http://www.inkscape.org/) -->

<svg
   xmlns:dc="http://purl.org/dc/elements/1.1/"
   xmlns:cc="http://creativecommons.org/ns#"
   xmlns:rdf="http://www.w3.org/1999/02/22-rdf-syntax-ns#"
   xmlns:svg="http://www.w3.org/2000/svg"
   xmlns="http://www.w3.org/2000/svg"
   version="1.1"
   width="26"
   height="40"
   id="svg2">
  <defs
     id="defs4" />
  <metadata
     id="metadata7">
    <rdf:RDF>
      <cc:Work
         rdf:about="">
        <dc:format>image/svg+xml</dc:format>
        <dc:type
           rdf:resource="http://purl.org/dc/dcmitype/StillImage" />
        <dc:title></dc:title>
      </cc:Work>
    </rdf:RDF>
  </metadata>
  <path
     d="m 20,0.00747 c 0.10225,0 0.2029,0.0466 0.28125,0.125 l 5.0625,5.09375 c 0.1567,0.1567 0.1567,0.40581 0,0.5625 l -14.1875,14.21875 14.1875,14.21875 c 0.1567,0.1567 0.1567,0.40581 0,0.5625 l -5.0625,5.09375 c -0.15669,0.1567 -0.43705,0.1567 -0.59375,0 L 5.21875,25.38247 0.125,20.28872 C 0.0466,20.21032 0,20.10972 0,20.00747 c 0,-0.0511 0.0117,-0.10811 0.0312,-0.15625 0.0196,-0.0481 0.0546,-0.0858 0.0937,-0.125 l 5.09375,-5.09375 14.46875,-14.5 c 0.0784,-0.0784 0.21025,-0.125 0.3125,-0.125 z"
     id="rect3107-3-4-1-1"
     style="fill:#000000;fill-opacity:0.53333333;stroke:none" />
  <path
     d="m 20,0.69497 c 0.0767,0 0.12874,0.004 0.1875,0.0625 l 3.84375,3.84375 c 0.11752,0.11752 0.11752,0.28873 0,0.40625 l -14.3125,14.28125 14.9375,14.9375 c 0.1567,0.1567 0.1567,0.40581 0,0.5625 l -3.6875,3.65625 c -0.15669,0.1567 -0.4058,0.1567 -0.5625,0 l -15.125,-15.125 -3.75,-3.75 c -0.0219,-0.0219 -0.0467,-0.0373 -0.0625,-0.0625 -0.0172,-0.0172 -0.0191,-0.0427 -0.0312,-0.0625 -0.004,-0.009 0.003,-0.0218 0,-0.0312 -0.0386,-0.079 -0.0351,-0.1386 0,-0.21875 0.008,-0.0191 -0.0125,-0.0451 0,-0.0625 0.005,-0.0135 0.0242,-0.0183 0.0312,-0.0312 l 0.0625,-0.0937 3.6875,-3.65625 14.5625,-14.59375 C 19.84005,0.69882 19.92331,0.69512 20,0.69512 z"
     id="rect3107-3-5-2-3"
     style="fill:#ffffff;fill-opacity:1;stroke:none" />
</svg>

<?xml version="1.0" encoding="UTF-8"?>
<svg xmlns="http://www.w3.org/2000/svg" width="26" height="40" viewBox="0 0 26 40">
    <path fill-opacity=".51" d="M20 .007c.102 0 .203.047.281.125l5.063 5.094a.395.395 0 0 1 0 .563L11.156 20.007l14.188 14.22a.395.395 0 0 1 0 .562l-5.063 5.093a.434.434 0 0 1-.593 0l-14.47-14.5L.126 20.29A.403.403 0 0 1 0 20.007c0-.05.012-.108.031-.156a.392.392 0 0 1 .094-.125l5.094-5.094L19.687.132A.478.478 0 0 1 20 .007z"/>
    <path fill="#fff" d="M20 .695c.077 0 .129.004.188.062l3.843 3.844a.278.278 0 0 1 0 .406L9.72 19.29l14.937 14.937a.395.395 0 0 1 0 .563l-3.687 3.656a.395.395 0 0 1-.563 0L5.281 23.32l-3.75-3.75c-.022-.022-.046-.037-.062-.063-.017-.017-.02-.042-.031-.062-.004-.009.003-.022 0-.031-.039-.08-.036-.139 0-.219.008-.02-.013-.045 0-.062.005-.014.024-.019.03-.032l.063-.093L5.22 15.35 19.78.758c.06-.06.142-.063.219-.063z"/>
</svg>
